svg/fluentui-system-icons/ic_fluent_window_dev_tools_24_filled.svg

<svg width="24" height="24" viewBox="0 0 24 24" fill="none" xmlns="http://www.w3.org/2000/svg">
<path d="M3 3.05051C2.38141 3.68178 2 4.54635 2 5.5V16.5C2 18.433 3.567 20 5.5 20H12.5135C12.5652 19.7477 12.6577 19.4994 12.7935 19.2641L13.5234 18H5.5C4.67157 18 4 17.3284 4 16.5V7H18V8.25429C18.6354 8.0248 19.3198 7.9385 20 8.00934V5.5C20 4.54635 19.6186 3.68178 19 3.05051V3H18.9495C18.3182 2.38141 17.4537 2 16.5 2H5.5C4.54635 2 3.68178 2.38141 3.05051 3H3V3.05051ZM19.2123 9C19.4255 8.9803 19.6411 8.98005 19.8565 9C19.9616 9.00974 20.0667 9.0243 20.1714 9.04377L18.521 11.9024C18.1988 12.4604 18.39 13.1739 18.948 13.4961C19.506 13.8183 20.2195 13.6271 20.5417 13.0691L22.1921 10.2105C23.1291 11.3063 23.3244 12.916 22.5624 14.2357C21.8586 15.4548 20.5321 16.0903 19.2166 15.9724L16.1855 21.2224C15.7828 21.9199 14.8908 22.1589 14.1933 21.7562C13.5724 21.3977 13.3149 20.6516 13.5499 20C13.5788 19.9196 13.6153 19.8407 13.6595 19.7641L16.685 14.5239C15.9109 13.4415 15.7915 11.9632 16.5002 10.7357C17.0907 9.71296 18.1194 9.10098 19.2123 9ZM10.3029 9.2432C10.5828 9.54854 10.5621 10.023 10.2568 10.3029L7.85992 12.5L10.2568 14.6971C10.5621 14.977 10.5828 15.4515 10.3029 15.7568C10.023 16.0621 9.54855 16.0828 9.24321 15.8029L6.24321 13.0529C6.08823 12.9108 6 12.7102 6 12.5C6 12.2898 6.08823 12.0892 6.24321 11.9471L9.24321 9.19713C9.54855 8.91724 10.023 8.93786 10.3029 9.2432ZM13.2568 15.8029L15.2766 13.9514C14.9587 13.0273 14.9412 12.0035 15.2685 11.0412L13.2568 9.19713C12.9515 8.91724 12.477 8.93786 12.1971 9.2432C11.9172 9.54854 11.9379 10.023 12.2432 10.3029L14.6401 12.5L12.2432 14.6971C11.9379 14.977 11.9172 15.4515 12.1971 15.7568C12.477 16.0621 12.9515 16.0828 13.2568 15.8029Z" fill="#212121"/>
</svg>

<svg xmlns="http://www.w3.org/2000/svg" width="24" height="24"><path d="M3 3.05c-.619.632-1 1.496-1 2.45v11A3.5 3.5 0 0 0 5.5 20h7.014c.051-.252.144-.5.28-.736l.73-1.264H5.5A1.5 1.5 0 0 1 4 16.5V7h14v1.254a4.515 4.515 0 0 1 2-.245V5.5c0-.954-.381-1.818-1-2.45V3h-.05a3.489 3.489 0 0 0-2.45-1h-11c-.954 0-1.818.381-2.45 1H3v.05ZM19.212 9a3.496 3.496 0 0 1 .96.044l-1.651 2.858a1.167 1.167 0 1 0 2.02 1.167l1.651-2.859a3.501 3.501 0 0 1-2.975 5.762l-3.031 5.25a1.458 1.458 0 0 1-2.527-1.458l3.026-5.24A3.5 3.5 0 0 1 19.212 9Zm-8.91.243a.75.75 0 0 1-.045 1.06L7.86 12.5l2.397 2.197a.75.75 0 0 1-1.014 1.106l-3-2.75a.75.75 0 0 1 0-1.106l3-2.75a.75.75 0 0 1 1.06.046Zm2.955 6.56 2.02-1.852a4.495 4.495 0 0 1-.008-2.91l-2.012-1.844a.75.75 0 0 0-1.014 1.106L14.64 12.5l-2.397 2.197a.75.75 0 0 0 1.014 1.106Z"/></svg>
